symbolic/16x16/apps/x-tile.svg

<svg xmlns="http://www.w3.org/2000/svg" width="16" height="16" version="1.1">
 <path style="fill:#ee902f" d="M 1.2,8 C 0.5352,8 0,8.5352 0,9.2 V 10 H 8 V 9.2 C 8,8.5352 7.4648,8 6.8,8 Z"/>
 <path style="fill:#f05353" d="M 9.2,8 C 8.5352,8 8,8.5352 8,9.2 V 10 h 8 V 9.2 C 16,8.5352 15.4648,8 14.8,8 Z"/>
 <path style="fill:#b2bfd9" d="M 0,2 V 6.8 C 0,7.4648 0.5352,8 1.2,8 H 6.8 C 7.4648,8 8,7.4648 8,6.8 V 2 Z"/>
 <path style="fill:#2fb0ee" d="M 1.2,0 C 0.5352,0 0,0.5352 0,1.2 V 2 H 8 V 1.2 C 8,0.5352 7.4648,0 6.8,0 Z"/>
 <path style="fill:#cccccc" d="M 8,2 V 6.8 C 8,7.4648 8.5352,8 9.2,8 h 5.6 C 15.4648,8 16,7.4648 16,6.8 V 2 Z"/>
 <path style="fill:#208c6e" d="M 9.2,0 C 8.5352,0 8,0.5352 8,1.2 V 2 h 8 V 1.2 C 16,0.5352 15.4648,0 14.8,0 Z"/>
 <path style="fill:#cccccc" d="m 0,10 v 4.8 C 0,15.4648 0.5352,16 1.2,16 H 6.8 C 7.4648,16 8,15.4648 8,14.8 V 10 Z"/>
 <path style="fill:#b2bfd9" d="m 8,10 v 4.8 C 8,15.4648 8.5352,16 9.2,16 h 5.6 C 15.4648,16 16,15.4648 16,14.8 V 10 Z"/>
 <path style="fill:#17191e" d="m 1.9999997,3 v 0.7692308 l 1.6475407,0.22869 3.2950822,4.0540542 -3.5409832,4.012474 -1.4016396,0.16632 V 13 H 6.5 V 12.230769 L 5.2459018,12.08524 5.1229509,11.835759 7.6311473,8.8212058 9.9180336,11.918919 9.7950814,12.08524 9,12.230769 V 13 h 5 V 12.230769 L 12.524591,12.064449 8.9098359,7.6153846 12.155738,3.9771313 13.5,3.7692308 V 3 H 9 v 0.7692308 l 1.286886,0.12474 0.196721,0.2702705 L 8.2459017,6.8253638 6.1803283,4.1018708 6.3032784,3.8939708 7.5,3.7692308 V 3 Z"/>
</svg>

<svg xmlns="http://www.w3.org/2000/svg" width="16" height="16"><path style="fill:#ee902f" d="M1.2 8C.535 8 0 8.535 0 9.2v.8h8v-.8C8 8.535 7.465 8 6.8 8z"/><path style="fill:#f05353" d="M9.2 8C8.535 8 8 8.535 8 9.2v.8h8v-.8c0-.665-.535-1.2-1.2-1.2z"/><path style="fill:#b2bfd9" d="M0 2v4.8C0 7.465.535 8 1.2 8h5.6C7.465 8 8 7.465 8 6.8V2z"/><path style="fill:#2fb0ee" d="M1.2 0C.535 0 0 .535 0 1.2V2h8v-.8C8 .535 7.465 0 6.8 0z"/><path style="fill:#ccc" d="M8 2v4.8C8 7.465 8.535 8 9.2 8h5.6c.665 0 1.2-.535 1.2-1.2V2z"/><path style="fill:#208c6e" d="M9.2 0C8.535 0 8 .535 8 1.2V2h8v-.8c0-.665-.535-1.2-1.2-1.2z"/><path style="fill:#ccc" d="M0 10v4.8c0 .665.535 1.2 1.2 1.2h5.6c.665 0 1.2-.535 1.2-1.2V10z"/><path style="fill:#b2bfd9" d="M8 10v4.8c0 .665.535 1.2 1.2 1.2h5.6c.665 0 1.2-.535 1.2-1.2V10z"/><path style="fill:#17191e" d="M2 3v.77l1.648.228 3.295 4.054-3.541 4.012L2 12.231V13h4.5v-.77l-1.254-.145-.123-.25 2.508-3.014 2.287 3.098-.123.166-.795.146V13h5v-.77l-1.475-.166L8.91 7.615l3.246-3.638L13.5 3.77V3H9v.77l1.287.124.197.27-2.238 2.661L6.18 4.102l.123-.208L7.5 3.769V3z"/></svg>
